packages/wallets/icons/safepal.svg

<svg height="256" viewBox="0 0 256 256" width="256" xmlns="http://www.w3.org/2000/svg"><g fill="none" fill-rule="evenodd"><path d="m256 128c0 70.693873-57.307933 128-128 128-70.6920667 0-128-57.306127-128-128 0-70.6920667 57.3079333-128 128-128 70.692067 0 128 57.3079333 128 128" fill="#000"/><path d="m200.991499 141.384379v11.934404c0 32.497078-46.205826 51.475346-61.935398 56.986532l-6.289371 2.174685v-20.629401l2.621916-.98928c22.714745-8.548836 45.632282-23.295465 46.088361-37.123784l.006922-.418752v-11.934404zm-72.865172-97.864379 19.661135 6.0633822v21.048067l-19.661135-6.0843963-1.286711.3992683v47.3545138h20.947846v19.510803h-20.947846v80.38063l-6.362892-2.375467c-2.448635-.928502-5.973167-2.339886-10.215875-4.249142l-.55744-.251858-2.374596-1.084652v-154.2937597zm-26.9692 8.4004758v20.9510788l-26.6410558 8.2698649v31.1590925h26.6410558v90.242718l-5.9001182-3.034115c-18.1762773-9.35539-39.8110882-25.070173-40.2419668-46.970248l-.0065411-.665532v-10.48928h19.5075703v10.48928c0 4.466737 2.2582867 9.1558 6.7186963 13.982944l.4115566.439209v-34.484173h-26.6378232v-65.646498zm52.5526-.4991662 47.281772 14.6339106v65.7564178h-27.758037v28.475751l-.285489.354206c-1.35525 1.634455-7.563575 8.622655-19.220465 14.594916zm19.523735 27.0775033v33.8020221h8.250467v-31.254464z" fill="#fff"/></g></svg>

<?xml version="1.0" encoding="UTF-8"?>
<svg width="256px" height="256px" viewBox="0 0 256 256" version="1.1" xmlns="http://www.w3.org/2000/svg" xmlns:xlink="http://www.w3.org/1999/xlink">
    <title>画板</title>
    <defs>
        <path d="M256,128 C256,198.693873 198.692067,256 128,256 C57.3079333,256 1.42108547e-14,198.693873 1.42108547e-14,128 C1.42108547e-14,57.3079333 57.3079333,0 128,0 C198.692067,0 256,57.3079333 256,128" id="path-1"></path>
        <path d="M200.991499,141.384379 L200.991499,153.318783 C200.991499,185.815861 154.785673,204.794129 139.056101,210.305315 L132.76673,212.48 L132.76673,191.850599 L135.388646,190.861319 C158.103391,182.312483 181.020928,167.565854 181.477007,153.737535 L181.483929,153.318783 L181.483929,141.384379 L200.991499,141.384379 Z M128.126327,43.52 L147.787462,49.5833822 L147.787462,70.6314492 L128.126327,64.5470529 L126.839616,64.9463212 L126.839616,112.300835 L147.787462,112.300835 L147.787462,131.811638 L126.839616,131.811638 L126.839616,212.192268 L120.476724,209.816801 C118.028089,208.888299 114.503557,207.476915 110.260849,205.567659 L109.703409,205.315801 L107.328813,204.231149 L107.328813,49.9373893 L128.126327,43.52 Z M101.157127,51.9204758 L101.157127,72.8715546 L74.5160712,81.1414195 L74.5160712,112.300512 L101.157127,112.300512 L101.157127,202.54323 L95.2570088,199.509115 C77.0807315,190.153725 55.4459206,174.438942 55.015042,152.538867 L55.0085009,151.873335 L55.0085009,141.384055 L74.5160712,141.384055 L74.5160712,151.873335 C74.5160712,156.340072 76.7743579,161.029135 81.2347675,165.856279 L81.6463241,166.295488 L81.6463241,131.811315 L55.0085009,131.811315 L55.0085009,66.164817 L101.157127,51.9204758 Z M153.709727,51.4213096 L200.991499,66.0552202 L200.991499,131.811638 L173.233462,131.811638 L173.233462,160.287389 L172.947973,160.641595 C171.592723,162.27605 165.384398,169.26425 153.727508,175.236511 L153.709727,51.4213096 Z M173.233462,78.4988129 L173.233462,112.300835 L181.483929,112.300835 L181.483929,81.046371 L173.233462,78.4988129 Z" id="path-3"></path>
    </defs>
    <g id="画板" stroke="none" stroke-width="1" fill="none" fill-rule="evenodd">
        <mask id="mask-2" fill="white">
            <use xlink:href="#path-1"></use>
        </mask>
        <use id="蒙版" fill="#000000" xlink:href="#path-1"></use>
        <mask id="mask-4" fill="white">
            <use xlink:href="#path-3"></use>
        </mask>
        <use id="蒙版" fill="#FFFFFF" xlink:href="#path-3"></use>
    </g>
</svg>
